!!!COM: Robert Schumann
!!!CNT: Deutsch
!!!TXO: Deutsch
!!!OTL: Stille Tra2nen
!!!LYR: Kerner
!!!OPR: Zwo2lf Gedichte
!!!OPS: Op. 35
!!!ONM: No. 10
!!!ENC: Ben Fuhrman
!!!YOR: Schumann Lieder - Max Friedlaender, ed.,
!!!YOR: New York: C. F. Peters, Vol. 2
!!!ODT: 1840/
!!NB: Vocal melody and text only encoded.
!!NB: First instance of melodic material only encoded.
**kern	**silbe
*clefG2	*
*k[b-e-a-d-]	*
*M6/4	*
!!created: 07/05/06 10:10
!!proofed and posted: 07/05/06 10:10
!!edit time: 40 minutes
=2	=2
2.r	.
4r	.
4r	.
{4e-	{Du
=3	=3
[2.e-	bist
2e-]	|
4e-	vom
=4	=4
[2.en	Schlaf
2en]	|
4cc	er-
=5	=5
2.b-	-stan-
2.a-}	-den}
=6	=6
2.r	.
4r	.
4r	.
{4a-	{und
=7	=7
[2.a-	wan-
2a-]	|
4a-	-delst
=8	=8
[2.b-	durch
2b-_	|
8b-]	|
8b-	die
=9	=9
[1.ee-	Au,
=10	=10
2ee-]}	|}
4r	.
4r	.
4r	.
{4a-	{da
=11	=11
[2.a-	liegt
2a-]	|
4a-	ob
=12	=12
[2.an	al-
2an]	|
4ff	-len
=13	=13
2.ee-	Lan-
[2.dd-	-den
=14	=14
2dd-]}	|}
4r	.
4r	.
4r	.
{4dd-	{der
=15	=15
[2.dd-	Him-
2dd-]	|
4f	-mel
=16	=16
[2.b-	wun-
2b-_	|
8b-]	|
8A-	-der-
=17	=17
[1.a-	blau.
=18	=18
2.a-]}	|}
4r	.
4r	.
{4a-	{So
=19	=19
[2.a-	lang
2a-]	|
4a-	du
=20	=20
[2.g-	oh
(4g-]	|
4a-)	|
4b--	-ne
=21	=21
2.dd-	Sor-
2.cc-}	-gen}
=22	=22
2.r	.
4r	.
4r	.
{4g-	{ge-
=23	=23
[2.a-	-schlum-
2a-]	|
4a-	-mert
=24	=24
[2.g-	schmer-
(4g-]	|
4a-)	|
4b--	-zen-
=25	=25
[1.cc-	-los,
=26	=26
2.cc-]}	|}
4r	.
4r	.
{4bn	{der
=27	=27
[2.bn	Him-
2bn]	|
4bn	-mel
=28	=28
[2.an	bis-
(4an]	|
4bn)	|
4ccn	zum
=29	=29
2.een	Mor-
2.ddn}	-gen}
=30	=30
2.r	.
4r	.
4r	.
{4an	{viel
=31	=31
[2.bn	Tra2-
2bn]	|
4bn	-nen
=32	=32
[2.dd-	nie-
2dd-_	|
8dd-]	|
8a-	-der.
=33	=33
[1.dd-	-gross.
=34	=34
4dd-]}	|}
4r	.
4r	.
4r	.
4r	.
{4g-	{In
=35	=35
[2.g-	stil-
2g-]	|
4g-	-len
=36	=36
[2.gn	Na2ch-
2gn]	|
4ee-	-ten
=37	=37
2.dd-	wei-
2.cc-}	-net}
=38	=38
2.r	.
4r	.
4r	.
{4cc-	{oft
=39	=39
[2.cc-	man-
2cc-]	|
4cc-	-cher
=40	=40
[2.dd-	aus
2dd-]	|
4dd-	den
=41	=41
[1.gg-	Schmerz,
=42	=42
4gg-]}	|}
4r	.
4r	.
4r	.
4r	.
{4cc-	{und
=43	=43
[2.cc-	mor-
2cc-]	|
4cc-	-gens
=44	=44
[2.ccn	dann
2ccn_	|
8ccn]	|
8a-	ihr
=45	=45
2.ee-	mei-
[2.dd-	-net,
=46	=46
2dd-]}	|}
4r	.
2.r	.
=47	=47
{2.ccn	{stets
[2b-	fro2h-
8b-]	|
8cc	-lich
=48	=48
[2.dd-	sei
2dd-_	|
8dd-]	|
8gn	sein
=49	=49
1.a-}	Herz;}
!! rest to measure 56
=56	=56
2.r	.
4r	.
4r	.
{4a-	{und
=57	=57
[2.a-	mor-
2a-]	|
4a-	-gens
=58	=58
[2.an	dann
2an]	|
4ff	ihr
=59	=59
2.ee-	mei-
[2.dd-	-net,
=60	=60
2.dd-]}	|}
2.r	.
=61	=61
{2.cc	{stets
[2b-	fro2h-
8b-]	|
8cc	-lich
=62	=62
[2.dd-	sei
(2dd-]	|
8gg)	|
8g	sein
=63	=63
[2.a-	Herz.
4a-]}	|}
4r	.
4r	.
==	==
*-	*-
